icons/icn_lineal.svg

<svg width="24" xmlns="http://www.w3.org/2000/svg" height="24" id="screenshot-63a85700-5cdb-80b5-8006-90bf2dc83a0f" viewBox="0 0 24 24" xmlns:xlink="http://www.w3.org/1999/xlink" fill="none" version="1.1"><g id="shape-63a85700-5cdb-80b5-8006-90bf2dc83a0f"><g class="frame-container-wrapper"><g class="frame-container-blur"><g class="frame-container-shadows"><g fill="none"><g class="fills" id="fills-63a85700-5cdb-80b5-8006-90bf2dc83a0f"><rect rx="0" ry="0" x="0" y="0" width="24" height="24.000000000000455" transform="matrix(1, 0, 0, 1, 0, 0)" class="frame-background"/></g><g class="frame-children"><g id="shape-63a85700-5cdb-80b5-8006-90bebebe2a2f" rx="0" ry="0"><g id="shape-63a85700-5cdb-80b5-8006-90be5eaee3b6" style="opacity: 1;"><g class="fills" id="fills-63a85700-5cdb-80b5-8006-90be5eaee3b6"><path d="M3.47658371925354,2.7496337890625C3.07448410987854,2.75146484375,2.74782395362854,3.0770263671875,2.74709153175354,3.4798583984375L2.74709153175354,8.52294921875C2.74782395362854,8.92578125,3.07448410987854,9.2520751953125,3.47658371925354,9.2535400390625L5.264425277709961,9.2535400390625L5.264425277709961,14.74560546875L3.47658371925354,14.74560546875C3.28175950050354,14.746337890625,3.09572434425354,14.8245849609375,2.95802903175354,14.963134765625C2.82179856300354,15.1015625,2.74489426612854,15.2890625,2.74709153175354,15.48388671875L2.74709153175354,20.51708984375C2.74489426612854,20.7117919921875,2.82179856300354,20.8994140625,2.95802903175354,21.0377197265625C3.09572434425354,21.1766357421875,3.28175950050354,21.2545166015625,3.47658371925354,21.2552490234375L8.517843246459961,21.2552490234375C8.713644027709961,21.2550048828125,8.900899887084961,21.177001953125,9.037618637084961,21.0384521484375C9.175558090209961,20.900146484375,9.252462387084961,20.7122802734375,9.250265121459961,20.51708984375L9.250265121459961,18.7318115234375L13.255880355834961,18.7318115234375C13.585470199584961,20.0703125,14.783712387084961,21.0118408203125,16.16286277770996,21.01513671875C16.95827293395996,21.01513671875,17.72072410583496,20.698974609375,18.28395652770996,20.136474609375C18.84645652770996,19.57373046875,19.16213035583496,18.8104248046875,19.16213035583496,18.01513671875C19.16213035583496,17.2193603515625,18.84645652770996,16.4560546875,18.28395652770996,15.89404296875C17.72072410583496,15.3314208984375,16.95827293395996,15.01513671875,16.16286277770996,15.01513671875C14.794698715209961,15.0177001953125,13.602315902709961,15.944580078125,13.262472152709961,17.2691650390625L9.250265121459961,17.2691650390625L9.250265121459961,15.48388671875C9.252462387084961,15.2886962890625,9.175558090209961,15.10107421875,9.037618637084961,14.96240234375C8.900899887084961,14.823974609375,8.713644027709961,14.7459716796875,8.517843246459961,14.74560546875L6.732931137084961,14.74560546875L6.732931137084961,9.2535400390625L8.517843246459961,9.2535400390625C8.922140121459961,9.2528076171875,9.248800277709961,8.9261474609375,9.250265121459961,8.52294921875L9.250265121459961,6.7357177734375L14.742696762084961,6.7357177734375L14.742696762084961,8.52294921875C14.743429183959961,8.7177734375,14.821554183959961,8.904052734375,14.960226058959961,9.0413818359375C15.098653793334961,9.1788330078125,15.286153793334961,9.254638671875,15.480978012084961,9.2535400390625L20.51418113708496,9.2535400390625C20.70900535583496,9.254638671875,20.89650535583496,9.1788330078125,21.03493309020996,9.0413818359375C21.17336082458496,8.904052734375,21.25172996520996,8.7177734375,21.25221824645996,8.52294921875L21.25221824645996,3.4798583984375C21.25172996520996,3.2850341796875,21.17336082458496,3.0986328125,21.03493309020996,2.961669921875C20.89650535583496,2.82470703125,20.70900535583496,2.748046875,20.51418113708496,2.7496337890625L15.480978012084961,2.7496337890625C15.286153793334961,2.748046875,15.098653793334961,2.82470703125,14.960226058959961,2.961669921875C14.821554183959961,3.0986328125,14.743429183959961,3.2850341796875,14.742696762084961,3.4798583984375L14.742696762084961,5.267333984375L9.250265121459961,5.267333984375L9.250265121459961,3.4798583984375C9.248800277709961,3.0765380859375,8.922140121459961,2.75,8.517843246459961,2.7496337890625ZM4.214864730834961,4.2183837890625L7.787618637084961,4.2183837890625L7.787618637084961,7.7904052734375L4.214864730834961,7.7904052734375ZM16.21120262145996,4.2183837890625L19.78322410583496,4.2183837890625L19.78322410583496,7.7904052734375L16.21120262145996,7.7904052734375ZM4.214864730834961,16.2144775390625L7.787618637084961,16.2144775390625L7.787618637084961,19.7864990234375L4.214864730834961,19.7864990234375Z" style="display: inline; stroke-linecap: round; stroke-linejoin: round; paint-order: markers; fill: rgb(0, 0, 0); fill-opacity: 1;"/></g></g></g></g></g></g></g></g></g></svg>

<svg fill="none" viewBox="0 0 24 24"><g class="frame-container-wrapper"><g class="frame-container-blur"><g class="frame-container-shadows"><g class="fills"><rect width="24" height="24" class="frame-background" rx="0" ry="0"/></g><g class="frame-children"><path fill="#000" d="M3.4766 2.7496c-.4021.0019-.7288.3274-.7295.7303v5.043a.7324.7324 0 0 0 .7295.7306h1.7878v5.4921H3.4766a.7345.7345 0 0 0-.5186.2175.732.732 0 0 0-.211.5208v5.0332a.7317.7317 0 0 0 .7296.7381h5.0412a.7312.7312 0 0 0 .5198-.2167.7271.7271 0 0 0 .2127-.5214v-1.7853h4.0056c.3296 1.3385 1.5278 2.28 2.907 2.2833a3.0014 3.0014 0 0 0 2.121-.8786 3.0009 3.0009 0 0 0 .8782-2.1214c0-.7957-.3156-1.559-.8781-2.121a3.0011 3.0011 0 0 0-2.1211-.879c-1.3682.0026-2.5606.9295-2.9004 2.254H9.2503V15.484a.728.728 0 0 0-.2127-.5215.7322.7322 0 0 0-.5198-.2168H6.733v-5.492h1.785a.7332.7332 0 0 0 .7324-.7307V6.7357h5.4924V8.523a.733.733 0 0 0 .2175.5185.7326.7326 0 0 0 .5208.2121h5.0332a.7328.7328 0 0 0 .738-.7306V3.48a.7316.7316 0 0 0-.2173-.5182.7325.7325 0 0 0-.5207-.212H15.481a.7325.7325 0 0 0-.5208.212.7319.7319 0 0 0-.2175.5182v1.7874H9.2503V3.48a.7326.7326 0 0 0-.7325-.7303Zm.7383 1.4688h3.5727v3.572H4.215Zm11.9963 0h3.572v3.572h-3.572ZM4.2149 16.2144h3.5727v3.5721H4.215Z" class="fills" paint-order="markers"/></g></g></g></g></svg>
